src/assets/img/landing/new/endpoint5.svg

<svg height="31" viewBox="0 0 161 31" fill="none" xmlns="http://www.w3.org/2000/svg">
<rect y="0.5" width="30" height="30" rx="4" fill="#625BF8"></rect>
<path fill-rule="evenodd" clip-rule="evenodd" d="M11.7 7.7H20.1L22.5 7.7V13.1H20.1V10.1L11.7 10.1V14.3L17.1 14.3V16.7H11.7V20.9H13.5V23.3H11.7H9.3L7.5 23.3V20.9H9.3V16.7H7.5V14.3H9.3V10.1H7.5V7.7L9.3 7.7H11.7Z" fill="#fff"></path>
<path fill="#01112C" class="WaoYT" data-is-header="true" d="M38.3 23V8.4H49.26V11.62H42.04V15.06H47.94V17.72H42.04V23H38.3ZM55.9884 23.2C54.9751 23.2 54.0818 23.06 53.3084 22.78C52.5351 22.4867 51.8884 22.0867 51.3684 21.58C50.8618 21.0733 50.4818 20.4667 50.2284 19.76C49.9751 19.04 49.8484 18.26 49.8484 17.42C49.8484 16.5933 49.9818 15.82 50.2484 15.1C50.5284 14.38 50.9284 13.76 51.4484 13.24C51.9684 12.72 52.6084 12.3133 53.3684 12.02C54.1418 11.7267 55.0151 11.58 55.9884 11.58C56.9884 11.58 57.8751 11.7333 58.6484 12.04C59.4218 12.3333 60.0618 12.74 60.5684 13.26C61.0884 13.78 61.4751 14.4 61.7284 15.12C61.9951 15.8267 62.1284 16.5867 62.1284 17.4C62.1284 18.2133 61.9884 18.98 61.7084 19.7C61.4418 20.4067 61.0484 21.02 60.5284 21.54C60.0084 22.0467 59.3618 22.4533 58.5884 22.76C57.8284 23.0533 56.9618 23.2 55.9884 23.2ZM55.9884 20.36C56.8418 20.36 57.4551 20.0933 57.8284 19.56C58.2018 19.0267 58.3884 18.3067 58.3884 17.4C58.3884 16.4667 58.2018 15.7267 57.8284 15.18C57.4684 14.6333 56.8551 14.36 55.9884 14.36C55.1618 14.36 54.5551 14.64 54.1684 15.2C53.7818 15.7467 53.5884 16.48 53.5884 17.4C53.5751 18.32 53.7484 19.0467 54.1084 19.58C54.4818 20.1 55.1084 20.36 55.9884 20.36ZM64.0403 23V11.8H67.6403V14.38C68.0003 13.42 68.507 12.7133 69.1603 12.26C69.8136 11.8067 70.5803 11.58 71.4603 11.58C72.7003 11.58 73.667 11.98 74.3603 12.78C75.0536 13.5667 75.4003 14.6267 75.4003 15.96V23H71.7803V17.04C71.7803 16.1467 71.627 15.4867 71.3203 15.06C71.0136 14.6333 70.5003 14.42 69.7803 14.42C69.087 14.42 68.5603 14.6867 68.2003 15.22C67.8403 15.7533 67.6603 16.5333 67.6603 17.56V23H64.0403ZM85.3155 19.96V22.6C85.0221 22.7733 84.6688 22.9133 84.2555 23.02C83.8555 23.14 83.4088 23.2 82.9155 23.2C81.4888 23.2 80.5021 22.8667 79.9555 22.2C79.4221 21.5333 79.1555 20.5667 79.1555 19.3V14.62H76.7555V11.8H79.1955V9.04L82.5355 7.44V11.8H85.3155V14.62H82.5355V18.74C82.5355 19.3 82.6488 19.7 82.8755 19.94C83.1155 20.1667 83.4688 20.28 83.9355 20.28C84.2155 20.28 84.4555 20.2533 84.6555 20.2C84.8688 20.1333 85.0888 20.0533 85.3155 19.96ZM86.3783 21.1L88.8183 18.82C89.2849 19.3533 89.8049 19.7467 90.3783 20C90.9516 20.2533 91.5649 20.38 92.2183 20.38C92.7783 20.38 93.1716 20.2867 93.3983 20.1C93.6383 19.9 93.7583 19.6667 93.7583 19.4C93.7583 19.04 93.4783 18.8067 92.9183 18.7C92.3583 18.58 91.5383 18.4333 90.4583 18.26C89.3516 18.0867 88.4716 17.7733 87.8183 17.32C87.1649 16.8667 86.8383 16.1467 86.8383 15.16C86.8383 14.6667 86.9383 14.2 87.1383 13.76C87.3383 13.32 87.6316 12.9333 88.0183 12.6C88.4183 12.2667 88.9116 12.0067 89.4983 11.82C90.0983 11.62 90.7783 11.52 91.5383 11.52C92.6983 11.52 93.7449 11.6933 94.6783 12.04C95.6249 12.3733 96.4583 12.9333 97.1783 13.72L94.7183 15.92C94.3049 15.4 93.8116 15.0133 93.2383 14.76C92.6649 14.4933 92.0383 14.36 91.3583 14.36C90.7849 14.36 90.3849 14.4533 90.1583 14.64C89.9449 14.8133 89.8383 15.0267 89.8383 15.28C89.8383 15.6133 90.0649 15.84 90.5183 15.96C90.9716 16.08 91.6849 16.2133 92.6583 16.36C93.9116 16.5467 94.9183 16.8733 95.6783 17.34C96.4516 17.7933 96.8383 18.54 96.8383 19.58C96.8383 20.6467 96.4383 21.5267 95.6383 22.22C94.8383 22.9 93.7116 23.24 92.2583 23.24C90.8849 23.24 89.7183 23.0533 88.7583 22.68C87.7983 22.2933 87.0049 21.7667 86.3783 21.1ZM104.387 23.2C103.374 23.2 102.48 23.06 101.707 22.78C100.934 22.4867 100.287 22.0867 99.7669 21.58C99.2602 21.0733 98.8802 20.4667 98.6269 19.76C98.3735 19.04 98.2469 18.26 98.2469 17.42C98.2469 16.5933 98.3802 15.82 98.6469 15.1C98.9269 14.38 99.3269 13.76 99.8469 13.24C100.367 12.72 101.007 12.3133 101.767 12.02C102.54 11.7267 103.414 11.58 104.387 11.58C105.387 11.58 106.274 11.7333 107.047 12.04C107.82 12.3333 108.46 12.74 108.967 13.26C109.487 13.78 109.874 14.4 110.127 15.12C110.394 15.8267 110.527 16.5867 110.527 17.4C110.527 18.2133 110.387 18.98 110.107 19.7C109.84 20.4067 109.447 21.02 108.927 21.54C108.407 22.0467 107.76 22.4533 106.987 22.76C106.227 23.0533 105.36 23.2 104.387 23.2ZM104.387 20.36C105.24 20.36 105.854 20.0933 106.227 19.56C106.6 19.0267 106.787 18.3067 106.787 17.4C106.787 16.4667 106.6 15.7267 106.227 15.18C105.867 14.6333 105.254 14.36 104.387 14.36C103.56 14.36 102.954 14.64 102.567 15.2C102.18 15.7467 101.987 16.48 101.987 17.4C101.974 18.32 102.147 19.0467 102.507 19.58C102.88 20.1 103.507 20.36 104.387 20.36ZM123.419 11.8V23H119.819V20.44C119.459 21.3867 118.965 22.0867 118.339 22.54C117.725 22.9933 116.999 23.22 116.159 23.22C114.879 23.22 113.919 22.8267 113.279 22.04C112.652 21.24 112.339 20.1733 112.339 18.84V11.8H115.959V17.78C115.959 18.6733 116.099 19.3333 116.379 19.76C116.672 20.1867 117.159 20.4 117.839 20.4C118.505 20.4 118.999 20.12 119.319 19.56C119.639 19 119.799 18.22 119.799 17.22V11.8H123.419ZM132.517 11.64C132.877 11.64 133.197 11.6667 133.477 11.72C133.77 11.7733 134.023 11.8467 134.237 11.94L133.357 15.28C133.103 15.16 132.837 15.0667 132.557 15C132.29 14.9333 131.977 14.9 131.617 14.9C131.03 14.9 130.523 15.1333 130.097 15.6C129.683 16.0667 129.477 16.76 129.477 17.68V23H125.857V11.8H129.457V14.9C129.683 13.7667 130.03 12.94 130.497 12.42C130.977 11.9 131.65 11.64 132.517 11.64ZM146.494 15.7L142.794 16.56C142.7 15.88 142.5 15.3467 142.194 14.96C141.887 14.56 141.387 14.36 140.694 14.36C139.894 14.36 139.307 14.6333 138.934 15.18C138.56 15.7267 138.367 16.4667 138.354 17.4C138.354 18.3333 138.527 19.06 138.874 19.58C139.234 20.1 139.84 20.36 140.694 20.36C141.374 20.36 141.867 20.1667 142.174 19.78C142.494 19.38 142.707 18.8467 142.814 18.18L146.534 18.88C146.254 20.1867 145.62 21.2333 144.634 22.02C143.647 22.8067 142.334 23.2 140.694 23.2C139.68 23.2 138.794 23.06 138.034 22.78C137.274 22.4867 136.64 22.0867 136.134 21.58C135.64 21.0733 135.267 20.4667 135.014 19.76C134.76 19.04 134.634 18.26 134.634 17.42C134.634 16.5933 134.767 15.82 135.034 15.1C135.314 14.38 135.714 13.76 136.234 13.24C136.754 12.72 137.4 12.3133 138.174 12.02C138.947 11.7267 139.827 11.58 140.814 11.58C142.52 11.58 143.82 11.96 144.714 12.72C145.607 13.4667 146.2 14.46 146.494 15.7ZM159.299 20.08C158.832 21 158.152 21.7533 157.259 22.34C156.365 22.9133 155.205 23.2 153.779 23.2C152.765 23.2 151.879 23.06 151.119 22.78C150.372 22.4867 149.745 22.0867 149.239 21.58C148.745 21.0733 148.372 20.4733 148.119 19.78C147.879 19.0733 147.759 18.3133 147.759 17.5C147.759 16.6867 147.892 15.92 148.159 15.2C148.439 14.48 148.832 13.8533 149.339 13.32C149.859 12.7867 150.499 12.3667 151.259 12.06C152.019 11.74 152.879 11.58 153.839 11.58C154.825 11.58 155.679 11.7333 156.399 12.04C157.132 12.3467 157.732 12.7533 158.199 13.26C158.665 13.7533 159.012 14.3333 159.239 15C159.465 15.6667 159.579 16.36 159.579 17.08V18.16H151.219C151.312 18.8933 151.579 19.4533 152.019 19.84C152.459 20.2267 153.065 20.42 153.839 20.42C154.425 20.42 154.899 20.3067 155.259 20.08C155.619 19.84 155.925 19.4533 156.179 18.92L159.299 20.08ZM153.759 14.22C153.065 14.22 152.505 14.4067 152.079 14.78C151.652 15.1533 151.379 15.6867 151.259 16.38H156.059C156.019 15.74 155.812 15.22 155.439 14.82C155.079 14.42 154.519 14.22 153.759 14.22Z"></path>
</svg>

<svg xmlns="http://www.w3.org/2000/svg" height="31" fill="none" viewBox="0 0 161 31">
  <rect width="30" height="30" y=".5" fill="#625BF8" rx="4"/>
  <path fill="#fff" fill-rule="evenodd" d="M11.7 7.7h10.8v5.4h-2.4v-3h-8.4v4.2h5.4v2.4h-5.4v4.2h1.8v2.4h-6v-2.4h1.8v-4.2H7.5v-2.4h1.8v-4.2H7.5V7.7h4.2Z" clip-rule="evenodd"/>
  <path fill="#01112C" d="M38.3 23V8.4h10.96v3.22h-7.22v3.44h5.9v2.66h-5.9V23H38.3Zm17.688.2c-1.013 0-1.906-.14-2.68-.42-.773-.293-1.42-.693-1.94-1.2a4.852 4.852 0 0 1-1.14-1.82c-.253-.72-.38-1.5-.38-2.34 0-.827.134-1.6.4-2.32.28-.72.68-1.34 1.2-1.86.52-.52 1.16-.927 1.92-1.22.774-.293 1.647-.44 2.62-.44 1 0 1.887.153 2.66.46.774.293 1.414.7 1.92 1.22.52.52.907 1.14 1.16 1.86a6.4 6.4 0 0 1 .4 2.28c0 .813-.14 1.58-.42 2.3a5.13 5.13 0 0 1-1.18 1.84c-.52.507-1.166.913-1.94 1.22-.76.293-1.626.44-2.6.44Zm0-2.84c.854 0 1.467-.267 1.84-.8.374-.533.56-1.253.56-2.16 0-.933-.186-1.673-.56-2.22-.36-.547-.973-.82-1.84-.82-.826 0-1.433.28-1.82.84-.386.547-.58 1.28-.58 2.2-.013.92.16 1.647.52 2.18.374.52 1 .78 1.88.78ZM64.04 23V11.8h3.6v2.58c.36-.96.867-1.667 1.52-2.12.654-.453 1.42-.68 2.3-.68 1.24 0 2.207.4 2.9 1.2.694.787 1.04 1.847 1.04 3.18V23h-3.62v-5.96c0-.893-.153-1.553-.46-1.98-.306-.427-.82-.64-1.54-.64-.693 0-1.22.267-1.58.8-.36.533-.54 1.313-.54 2.34V23h-3.62Zm21.275-3.04v2.64a4.091 4.091 0 0 1-1.06.42c-.4.12-.846.18-1.34.18-1.426 0-2.413-.333-2.96-1-.533-.667-.8-1.633-.8-2.9v-4.68h-2.4V11.8h2.44V9.04l3.34-1.6v4.36h2.78v2.82h-2.78v4.12c0 .56.114.96.34 1.2.24.227.594.34 1.06.34.28 0 .52-.027.72-.08a8.05 8.05 0 0 0 .66-.24Zm1.063 1.14 2.44-2.28c.467.533.987.927 1.56 1.18a4.51 4.51 0 0 0 1.84.38c.56 0 .954-.093 1.18-.28.24-.2.36-.433.36-.7 0-.36-.28-.593-.84-.7-.56-.12-1.38-.267-2.46-.44-1.106-.173-1.986-.487-2.64-.94-.653-.453-.98-1.173-.98-2.16 0-.493.1-.96.3-1.4.2-.44.494-.827.88-1.16.4-.333.894-.593 1.48-.78.6-.2 1.28-.3 2.04-.3 1.16 0 2.207.173 3.14.52.947.333 1.78.893 2.5 1.68l-2.46 2.2a3.877 3.877 0 0 0-1.48-1.16c-.573-.267-1.2-.4-1.88-.4-.573 0-.973.093-1.2.28a.795.795 0 0 0-.32.64c0 .333.227.56.68.68.454.12 1.167.253 2.14.4 1.254.187 2.26.513 3.02.98.774.453 1.16 1.2 1.16 2.24 0 1.067-.4 1.947-1.2 2.64-.8.68-1.926 1.02-3.38 1.02-1.373 0-2.54-.187-3.5-.56-.96-.387-1.753-.913-2.38-1.58Zm18.009 2.1c-1.013 0-1.907-.14-2.68-.42-.773-.293-1.42-.693-1.94-1.2a4.85 4.85 0 0 1-1.14-1.82c-.253-.72-.38-1.5-.38-2.34 0-.827.133-1.6.4-2.32.28-.72.68-1.34 1.2-1.86.52-.52 1.16-.927 1.92-1.22.773-.293 1.647-.44 2.62-.44 1 0 1.887.153 2.66.46.773.293 1.413.7 1.92 1.22.52.52.907 1.14 1.16 1.86a6.4 6.4 0 0 1 .4 2.28c0 .813-.14 1.58-.42 2.3a5.135 5.135 0 0 1-1.18 1.84c-.52.507-1.167.913-1.94 1.22-.76.293-1.627.44-2.6.44Zm0-2.84c.853 0 1.467-.267 1.84-.8s.56-1.253.56-2.16c0-.933-.187-1.673-.56-2.22-.36-.547-.973-.82-1.84-.82-.827 0-1.433.28-1.82.84-.387.547-.58 1.28-.58 2.2-.013.92.16 1.647.52 2.18.373.52 1 .78 1.88.78Zm19.032-8.56V23h-3.6v-2.56c-.36.947-.854 1.647-1.48 2.1-.614.453-1.34.68-2.18.68-1.28 0-2.24-.393-2.88-1.18-.627-.8-.94-1.867-.94-3.2V11.8h3.62v5.98c0 .893.14 1.553.42 1.98.293.427.78.64 1.46.64.666 0 1.16-.28 1.48-.84.32-.56.48-1.34.48-2.34V11.8h3.62Zm9.098-.16c.36 0 .68.027.96.08.293.053.546.127.76.22l-.88 3.34a3.907 3.907 0 0 0-1.74-.38c-.587 0-1.094.233-1.52.7-.414.467-.62 1.16-.62 2.08V23h-3.62V11.8h3.6v3.1c.226-1.133.573-1.96 1.04-2.48.48-.52 1.153-.78 2.02-.78Zm13.977 4.06-3.7.86c-.094-.68-.294-1.213-.6-1.6-.307-.4-.807-.6-1.5-.6-.8 0-1.387.273-1.76.82-.374.547-.567 1.287-.58 2.22 0 .933.173 1.66.52 2.18.36.52.966.78 1.82.78.68 0 1.173-.193 1.48-.58.32-.4.533-.933.64-1.6l3.72.7c-.28 1.307-.914 2.353-1.9 3.14-.987.787-2.3 1.18-3.94 1.18-1.014 0-1.9-.14-2.66-.42-.76-.293-1.394-.693-1.9-1.2a4.966 4.966 0 0 1-1.12-1.82c-.254-.72-.38-1.5-.38-2.34 0-.827.133-1.6.4-2.32.28-.72.68-1.34 1.2-1.86.52-.52 1.166-.927 1.94-1.22.773-.293 1.653-.44 2.64-.44 1.706 0 3.006.38 3.9 1.14.893.747 1.486 1.74 1.78 2.98Zm12.805 4.38a5.827 5.827 0 0 1-2.04 2.26c-.894.573-2.054.86-3.48.86-1.014 0-1.9-.14-2.66-.42-.747-.293-1.374-.693-1.88-1.2a4.997 4.997 0 0 1-1.12-1.8 7.045 7.045 0 0 1-.36-2.28c0-.813.133-1.58.4-2.3.28-.72.673-1.347 1.18-1.88a5.531 5.531 0 0 1 1.92-1.26c.76-.32 1.62-.48 2.58-.48.986 0 1.84.153 2.56.46.733.307 1.333.713 1.8 1.22a4.712 4.712 0 0 1 1.04 1.74c.226.667.34 1.36.34 2.08v1.08h-8.36c.093.733.36 1.293.8 1.68.44.387 1.046.58 1.82.58.586 0 1.06-.113 1.42-.34.36-.24.666-.627.92-1.16l3.12 1.16Zm-5.54-5.86c-.694 0-1.254.187-1.68.56-.427.373-.7.907-.82 1.6h4.8c-.04-.64-.247-1.16-.62-1.56-.36-.4-.92-.6-1.68-.6Z" class="WaoYT" data-is-header="true"/>
</svg>
